tools/download-figma-icons/icons/solid/heart.svg

<svg width="24" height="24" viewBox="0 0 24 24" fill="none" xmlns="http://www.w3.org/2000/svg">
<path fill-rule="evenodd" clip-rule="evenodd" d="M22.0053 13.0373L12.6256 22.778C12.4618 22.9495 12.2389 23.0439 12.0073 23.0439C11.7758 23.0439 11.5537 22.9495 11.39 22.778L2.00083 13.0288C-0.683006 10.2506 -0.665 5.69666 2.0437 2.89364C3.37276 1.51314 5.13055 0.75 7.00837 0.75C7.93443 0.75 8.83561 0.93864 9.65791 1.2902C10.4896 1.64175 11.2442 2.17338 11.8959 2.84219L11.9988 2.95366L12.1017 2.84219C13.405 1.49599 15.1371 0.75 16.9892 0.75C17.9324 0.75 18.8421 0.93864 19.6816 1.30735C20.5219 1.66748 21.2936 2.20768 21.9624 2.89364C24.6634 5.69666 24.6805 10.2506 22.0053 13.0373Z" fill="black"/>
</svg>

<svg width="24" height="24" viewBox="0 0 24 24" fill="none" xmlns="http://www.w3.org/2000/svg"><path fill-rule="evenodd" clip-rule="evenodd" d="m22.005 13.037-9.38 9.741a.854.854 0 0 1-1.235 0L2 13.028c-2.683-2.777-2.665-7.331.044-10.134C3.373 1.514 5.13.75 7.008.75c.926 0 1.828.189 2.65.54a6.873 6.873 0 0 1 2.238 1.552l.103.112.103-.112C13.405 1.496 15.137.75 16.989.75c.943 0 1.853.189 2.693.557.84.36 1.612.9 2.28 1.587 2.701 2.803 2.718 7.357.043 10.143Z" fill="currentColor"/></svg>
